X:1
T:Young Hunting
M:4/4
L:1/4
K:C
 G/2| A c F F/2F/2| G E E3/4- D/4 C| c c c/2e/2 d| B A2| G| A c F3/2 F/2|\
 G3/2 E/2E/2-D/2 C| D/2 D3/2 E3/2 G/2| G3 z/2||
